SVG_Azure_All/Azure AD Verifiable Credentials.svg

<?xml version="1.0" encoding="UTF-8" standalone="no"?>
<!-- Generated by Microsoft Visio, SVG Export Azure AD Verifiable Credentials.svg Page-1 -->

<svg
   xmlns:dc="http://purl.org/dc/elements/1.1/"
   xmlns:cc="http://creativecommons.org/ns#"
   xmlns:rdf="http://www.w3.org/1999/02/22-rdf-syntax-ns#"
   xmlns:svg="http://www.w3.org/2000/svg"
   xmlns="http://www.w3.org/2000/svg"
   xmlns:sodipodi="http://sodipodi.sourceforge.net/DTD/sodipodi-0.dtd"
   xmlns:inkscape="http://www.inkscape.org/namespaces/inkscape"
   width="0.63470727in"
   height="0.78061384in"
   viewBox="0 0 45.698715 56.204305"
   xml:space="preserve"
   class="st8"
   version="1.1"
   id="svg78"
   sodipodi:docname="Azure AD Verifiable Credentials.svg"
   style="font-size:12px;overflow:visible;color-interpolation-filters:sRGB;fill:none;fill-rule:evenodd;stroke-linecap:square;stroke-miterlimit:3"
   inkscape:version="0.92.5 (2060ec1f9f, 2020-04-08)"><metadata
   id="metadata82"><rdf:RDF><cc:Work
       rdf:about=""><dc:format>image/svg+xml</dc:format><dc:type
         rdf:resource="http://purl.org/dc/dcmitype/StillImage" /></cc:Work></rdf:RDF></metadata><sodipodi:namedview
   pagecolor="#ffffff"
   bordercolor="#666666"
   borderopacity="1"
   objecttolerance="10"
   gridtolerance="10"
   guidetolerance="10"
   inkscape:pageopacity="0"
   inkscape:pageshadow="2"
   inkscape:window-width="640"
   inkscape:window-height="480"
   id="namedview80"
   showgrid="false"
   inkscape:zoom="1.4248482"
   inkscape:cx="30.465938"
   inkscape:cy="37.45633"
   inkscape:window-x="0"
   inkscape:window-y="0"
   inkscape:window-maximized="0"
   inkscape:current-layer="svg78" />
	<style
   type="text/css"
   id="style2">
	<![CDATA[
		.st1 {fill:#59285f;stroke:none;stroke-linecap:butt;stroke-width:34}
		.st2 {fill:#a33a85;stroke:none;stroke-linecap:butt;stroke-width:34}
		.st3 {fill:url(#grad0-10);stroke:none;stroke-linecap:butt;stroke-width:34}
		.st4 {fill:#773adc;stroke:none;stroke-linecap:butt;stroke-width:34}
		.st5 {fill:url(#grad0-18);stroke:none;stroke-linecap:butt;stroke-width:34}
		.st6 {fill:#f2f2f2;stroke:none;stroke-linecap:butt;stroke-width:34}
		.st7 {fill:url(#grad0-24);stroke:none;stroke-linecap:butt;stroke-width:34}
		.st8 {fill:none;fill-rule:evenodd;font-size:12px;overflow:visible;stroke-linecap:square;stroke-miterlimit:3}
	]]>
	</style>

	<defs
   id="Patterns_And_Gradients">
		<linearGradient
   id="grad0-10"
   x1="0"
   y1="64.271558"
   x2="39.441263"
   y2="64.271558"
   gradientTransform="scale(0.83491242,1.1977304)"
   gradientUnits="userSpaceOnUse">
			<stop
   offset="0.5"
   stop-color="#b796f9"
   stop-opacity="1"
   id="stop4" />
			<stop
   offset="0.9"
   stop-color="#a67af4"
   stop-opacity="1"
   id="stop6" />
		</linearGradient>
		<linearGradient
   id="grad0-18"
   x1="-0.0060485466"
   y1="145.41376"
   x2="12.960702"
   y2="145.41376"
   gradientTransform="scale(1.2750001,0.78431367)"
   gradientUnits="userSpaceOnUse">
			<stop
   offset="0"
   stop-color="#a67af4"
   stop-opacity="1"
   id="stop9" />
			<stop
   offset="0.24"
   stop-color="#9065db"
   stop-opacity="1"
   id="stop11" />
			<stop
   offset="0.75"
   stop-color="#653eab"
   stop-opacity="1"
   id="stop13" />
			<stop
   offset="1"
   stop-color="#552f99"
   stop-opacity="1"
   id="stop15" />
		</linearGradient>
		<linearGradient
   id="grad0-24"
   x1="0"
   y1="113.58279"
   x2="9.3607574"
   y2="113.58279"
   gradientTransform="scale(0.98969132,1.0104161)"
   gradientUnits="userSpaceOnUse">
			<stop
   offset="0"
   stop-color="#a67af4"
   stop-opacity="1"
   id="stop18" />
			<stop
   offset="0.24"
   stop-color="#9065db"
   stop-opacity="1"
   id="stop20" />
			<stop
   offset="0.75"
   stop-color="#653eab"
   stop-opacity="1"
   id="stop22" />
			<stop
   offset="1"
   stop-color="#552f99"
   stop-opacity="1"
   id="stop24" />
		</linearGradient>
	</defs>
	<g
   id="g76"
   transform="translate(-34.000371,-33.999998)">
		<title
   id="title28">Page-1</title>
		<g
   id="group8660-1"
   transform="translate(34,-34.0157)">
			<title
   id="title30">Azure AD Verifiable Credentials</title>
			<g
   id="group8661-2">
				<title
   id="title32">Sheet.8661</title>
				<g
   id="shape8662-3"
   transform="rotate(90,34.14165,102.15735)">
					<title
   id="title34">Sheet.8662</title>
					<path
   d="m 0,122.6 a 1.59417,1.62755 -180 0 0 1.59,1.62 h 43.09 a 1.59417,1.62755 -180 0 0 1.6,-1.62 V 92.23 A 1.59417,1.62755 -180 0 0 44.68,90.6 H 1.59 A 1.59417,1.62755 -180 0 0 0,92.23 Z"
   class="st1"
   id="path36"
   inkscape:connector-curvature="0"
   style="fill:#59285f;stroke:none;stroke-width:34;stroke-linecap:butt" />
				</g>
				<g
   id="shape8663-5"
   transform="rotate(90,28.66205,101.42695)">
					<title
   id="title39">Sheet.8663</title>
					<path
   d="m 0,122.6 a 1.59417,1.62755 -180 0 0 1.59,1.62 h 43.09 a 1.59417,1.62755 -180 0 0 1.6,-1.62 V 92.23 A 1.59417,1.62755 -180 0 0 44.68,90.6 H 1.59 A 1.59417,1.62755 -180 0 0 0,92.23 Z"
   class="st2"
   id="path41"
   inkscape:connector-curvature="0"
   style="fill:#a33a85;stroke:none;stroke-width:34;stroke-linecap:butt" />
				</g>
				<g
   id="shape8664-7">
					<title
   id="title44">Sheet.8664</title>
					<path
   d="m 0,122.6 a 1.59417,1.62755 -180 0 0 1.59,1.62 h 29.75 a 1.59417,1.62755 -180 0 0 1.59,-1.62 v -44 A 1.59417,1.62755 -180 0 0 31.34,76.98 H 1.59 A 1.59417,1.62755 -180 0 0 0,78.6 Z"
   class="st3"
   id="path46"
   inkscape:connector-curvature="0"
   style="fill:url(#grad0-10);stroke:none;stroke-width:34;stroke-linecap:butt" />
				</g>
				<g
   id="shape8665-11"
   transform="rotate(180,12.9703,118.2995)">
					<title
   id="title49">Sheet.8665</title>
					<path
   d="m 0,123.37 a 0.833018,0.850463 -180 0 0 0.832999,0.85044 L 18.1,124.22 a 0.833018,0.850463 -180 0 0 0.832999,-0.85044 L 18.94,121.63 a 0.833018,0.850463 -180 0 0 -0.832999,-0.85044 L 0.83,120.78 a 0.833018,0.850463 -180 0 0 -0.832999,0.85044 z"
   class="st4"
   id="path51"
   inkscape:connector-curvature="0"
   style="fill:#773adc;stroke:none;stroke-width:34;stroke-linecap:butt" />
				</g>
				<g
   id="shape8666-13"
   transform="rotate(180,12.9703,114.9575)">
					<title
   id="title54">Sheet.8666</title>
					<path
   d="m 0,123.37 a 0.833018,0.850463 -180 0 0 0.832999,0.85044 L 18.1,124.22 a 0.833018,0.850463 -180 0 0 0.832999,-0.85044 L 18.94,121.63 a 0.833018,0.850463 -180 0 0 -0.832999,-0.85044 L 0.83,120.78 a 0.833018,0.850463 -180 0 0 -0.832999,0.85044 z"
   class="st4"
   id="path56"
   inkscape:connector-curvature="0"
   style="fill:#773adc;stroke:none;stroke-width:34;stroke-linecap:butt" />
				</g>
				<g
   id="shape8667-15"
   transform="translate(8.20912,-22.4317)">
					<title
   id="title59">Sheet.8667</title>
					<path
   d="m 15.05,124.21 a 1.41773,1.44742 -180 0 0 1.47,-1.44 0.767665,0.783742 -180 0 0 0,-0.17676 A 8.37572,8.55113 -180 0 0 8.3,114.05 c -5.01,0 -7.76,3.25 -8.3,8.51 a 1.48306,1.51412 -180 0 0 1.32,1.66 h 13.72 z"
   class="st5"
   id="path61"
   inkscape:connector-curvature="0"
   style="fill:url(#grad0-18);stroke:none;stroke-width:34;stroke-linecap:butt" />
				</g>
				<g
   id="shape8668-19"
   transform="translate(14.0989,-25.6234)">
					<title
   id="title64">Sheet.8668</title>
					<path
   d="M 2.47,118.36 A 4.60599,4.70245 0 0 1 0,117.6 l 2.47,6.62 2.47,-6.57 a 4.70073,4.79917 0 0 1 -2.47,0.71 z"
   class="st6"
   id="path66"
   inkscape:connector-curvature="0"
   style="fill:#f2f2f2;stroke:none;stroke-width:34;stroke-linecap:butt" />
				</g>
				<g
   id="shape8669-21"
   transform="translate(11.9004,-31.4864)">
					<title
   id="title69">Sheet.8669</title>
					<ellipse
   cx="4.6321301"
   cy="119.495"
   rx="4.6321301"
   ry="4.7291298"
   class="st7"
   id="ellipse71"
   style="fill:url(#grad0-24);stroke:none;stroke-width:34;stroke-linecap:butt" />
				</g>
			</g>
		</g>
	</g>
</svg>

<?xml version="1.0" encoding="UTF-8" standalone="no"?>
<!DOCTYPE svg PUBLIC "-//W3C//DTD SVG 1.1//EN" "http://www.w3.org/Graphics/SVG/1.1/DTD/svg11.dtd">
<!-- Generated by Microsoft Visio, SVG Export Azure AD Verifiable Credentials.svg Page-1 -->
<svg xmlns="http://www.w3.org/2000/svg" xmlns:xlink="http://www.w3.org/1999/xlink" xmlns:ev="http://www.w3.org/2001/xml-events"
		width="1.57916in" height="1.72533in" viewBox="0 0 113.699 124.224" xml:space="preserve" color-interpolation-filters="sRGB"
		class="st8">
	<style type="text/css">
	<![CDATA[
		.st1 {fill:#59285f;stroke:none;stroke-linecap:butt;stroke-width:34}
		.st2 {fill:#a33a85;stroke:none;stroke-linecap:butt;stroke-width:34}
		.st3 {fill:url(#grad0-10);stroke:none;stroke-linecap:butt;stroke-width:34}
		.st4 {fill:#773adc;stroke:none;stroke-linecap:butt;stroke-width:34}
		.st5 {fill:url(#grad0-18);stroke:none;stroke-linecap:butt;stroke-width:34}
		.st6 {fill:#f2f2f2;stroke:none;stroke-linecap:butt;stroke-width:34}
		.st7 {fill:url(#grad0-24);stroke:none;stroke-linecap:butt;stroke-width:34}
		.st8 {fill:none;fill-rule:evenodd;font-size:12px;overflow:visible;stroke-linecap:square;stroke-miterlimit:3}
	]]>
	</style>

	<defs id="Patterns_And_Gradients">
		<linearGradient id="grad0-10" x1="0" y1="0" x2="1" y2="0" gradientTransform="rotate(82.99389483292 0.5 0.5)">
			<stop offset="0.5" stop-color="#b796f9" stop-opacity="1"/>
			<stop offset="0.9" stop-color="#a67af4" stop-opacity="1"/>
		</linearGradient>
		<linearGradient id="grad0-18" x1="0" y1="0" x2="1" y2="0" gradientTransform="rotate(86.984781726576 0.5 0.5)">
			<stop offset="0" stop-color="#a67af4" stop-opacity="1"/>
			<stop offset="0.24" stop-color="#9065db" stop-opacity="1"/>
			<stop offset="0.75" stop-color="#653eab" stop-opacity="1"/>
			<stop offset="1" stop-color="#552f99" stop-opacity="1"/>
		</linearGradient>
		<linearGradient id="grad0-24" x1="0" y1="0" x2="1" y2="0" gradientTransform="rotate(85.003129347312 0.5 0.5)">
			<stop offset="0" stop-color="#a67af4" stop-opacity="1"/>
			<stop offset="0.24" stop-color="#9065db" stop-opacity="1"/>
			<stop offset="0.75" stop-color="#653eab" stop-opacity="1"/>
			<stop offset="1" stop-color="#552f99" stop-opacity="1"/>
		</linearGradient>
	</defs>
	<g>
		<title>Page-1</title>
		<g id="group8465-1" transform="translate(34,-34.0157)">
			<title>Azure AD Verifiable Credentials</title>
			<g id="group8466-2">
				<title>Sheet.8466</title>
				<g id="shape8467-3" transform="translate(136.299,68.0157) rotate(90)">
					<title>Sheet.8467</title>
					<path d="M0 122.6 A1.59417 1.62755 -180 0 0 1.59 124.22 L44.68 124.22 A1.59417 1.62755 -180 0 0 46.28 122.6 L46.28
								 92.23 A1.59417 1.62755 -180 0 0 44.68 90.6 L1.59 90.6 A1.59417 1.62755 -180 0 0 0 92.23 L0 122.6
								 Z" class="st1"/>
				</g>
				<g id="shape8468-5" transform="translate(130.089,72.7649) rotate(90)">
					<title>Sheet.8468</title>
					<path d="M0 122.6 A1.59417 1.62755 -180 0 0 1.59 124.22 L44.68 124.22 A1.59417 1.62755 -180 0 0 46.28 122.6 L46.28
								 92.23 A1.59417 1.62755 -180 0 0 44.68 90.6 L1.59 90.6 A1.59417 1.62755 -180 0 0 0 92.23 L0 122.6
								 Z" class="st2"/>
				</g>
				<g id="shape8469-7">
					<title>Sheet.8469</title>
					<path d="M-0 122.6 A1.59417 1.62755 -180 0 0 1.59 124.22 L31.34 124.22 A1.59417 1.62755 -180 0 0 32.93 122.6
								 L32.93 78.6 A1.59417 1.62755 -180 0 0 31.34 76.98 L1.59 76.98 A1.59417 1.62755 -180 0 0 0 78.6 L0
								 122.6 Z" class="st3"/>
				</g>
				<g id="shape8470-11" transform="translate(25.9406,236.599) rotate(180)">
					<title>Sheet.8470</title>
					<path d="M0 123.37 a0.833018 0.850463 -180 0 0 0.832999 0.850444 L18.1 124.22 a0.833018 0.850463 -180 0 0 0.832999
								 -0.850444 L18.94 121.63 a0.833018 0.850463 -180 0 0 -0.832999 -0.850444 L0.83 120.78 a0.833018 0.850463
								 -180 0 0 -0.832999 0.850444 L0 123.37 Z" class="st4"/>
				</g>
				<g id="shape8471-13" transform="translate(25.9406,229.915) rotate(180)">
					<title>Sheet.8471</title>
					<path d="M0 123.37 a0.833018 0.850463 -180 0 0 0.832999 0.850444 L18.1 124.22 a0.833018 0.850463 -180 0 0 0.832999
								 -0.850444 L18.94 121.63 a0.833018 0.850463 -180 0 0 -0.832999 -0.850444 L0.83 120.78 a0.833018 0.850463
								 -180 0 0 -0.832999 0.850444 L0 123.37 Z" class="st4"/>
				</g>
				<g id="shape8472-15" transform="translate(8.20912,-22.4317)">
					<title>Sheet.8472</title>
					<path d="M15.05 124.21 A1.41773 1.44742 -180 0 0 16.52 122.77 a0.767665 0.783742 -180 0 0 1.42109E-14 -0.176759
								 A8.37572 8.55113 -180 0 0 8.3 114.05 C3.29 114.05 0.54 117.3 0 122.56 A1.48306 1.51412 -180 0 0
								 1.32 124.22 L15.04 124.22 L15.05 124.21 Z" class="st5"/>
				</g>
				<g id="shape8473-19" transform="translate(14.0989,-25.6234)">
					<title>Sheet.8473</title>
					<path d="M2.47 118.36 A4.60599 4.70245 0 0 1 0 117.6 L2.47 124.22 L4.94 117.65 A4.70073 4.79917 0 0 1 2.47 118.36
								 Z" class="st6"/>
				</g>
				<g id="shape8474-21" transform="translate(11.9004,-31.4864)">
					<title>Sheet.8474</title>
					<ellipse cx="4.63213" cy="119.495" rx="4.63213" ry="4.72913" class="st7"/>
				</g>
			</g>
		</g>
	</g>
</svg>
